remix/Logos/honor-of-kings-line.svg

<svg viewBox="0 0 24 24" fill="currentColor" xmlns="http://www.w3.org/2000/svg"><path d="M18.3292 4.25604L16.9062 5.67921C13.7678 3.23734 9.22861 3.45865 6.34412 6.34315C3.97034 8.71692 3.40017 12.2113 4.63361 15.1234L7.0508 12.7061C6.83751 11.2027 7.30906 9.62085 8.46544 8.46447C10.1757 6.75423 12.8166 6.54193 14.7579 7.82757L13.2937 9.2919C12.1787 8.75967 10.8031 8.95526 9.87966 9.87868C8.95624 10.8021 8.76065 12.1777 9.29288 13.2927L2.8428 19.7424C2.80859 16.2426 2.25158 14.931 2.05494 13.0406C1.75392 10.1467 2.71224 7.1466 4.92991 4.92893C8.59624 1.2626 14.4012 1.03831 18.3292 4.25604ZM21.1592 4.25759C21.1934 7.75736 21.7504 9.06895 21.947 10.9594C22.248 13.8533 21.2897 16.8534 19.072 19.0711C15.4057 22.7374 9.60078 22.9617 5.67278 19.744L7.09575 18.3208C10.2342 20.7627 14.7733 20.5413 17.6578 17.6569C20.0316 15.2831 20.6018 11.7887 19.3683 8.87656L16.9512 11.2939C17.1644 12.7973 16.6929 14.3792 15.5365 15.5355C13.8263 17.2458 11.1853 17.4581 9.24404 16.1724L10.7083 14.7081C11.8233 15.2403 13.1989 15.0447 14.1223 14.1213C15.0457 13.1979 15.2413 11.8223 14.7091 10.7073L21.1592 4.25759Z"/></svg>

<svg viewBox="0 0 24 24" xmlns="http://www.w3.org/2000/svg"><path fill="none" d="M0 0h24v24H0Z"/><path d="M18.328 4.256l-1.43 1.423c-3.138-2.45-7.677-2.22-10.57.66 -2.38 2.37-2.944 5.86-1.71 8.78l2.417-2.417c-.22-1.51.258-3.09 1.41-4.25 1.71-1.71 4.35-1.93 6.29-.64l-1.47 1.46c-1.12-.532-2.49-.34-3.42.58 -.93.923-1.12 2.29-.59 3.41l-6.45 6.45c-.04-3.5-.6-4.82-.79-6.702 -.31-2.894.657-5.9 2.87-8.112 3.66-3.67 9.471-3.89 13.4-.673Zm2.83 0c.03 3.5.59 4.81.78 6.7 .3 2.894-.657 5.89-2.875 8.11 -3.67 3.66-9.471 3.89-13.4.67l1.42-1.43c3.138 2.442 7.677 2.22 10.562-.67 2.37-2.38 2.94-5.87 1.71-8.78l-2.42 2.417c.21 1.5-.26 3.08-1.42 4.24 -1.71 1.71-4.36 1.92-6.3.63l1.46-1.47c1.11.532 2.49.33 3.41-.59 .92-.923 1.12-2.3.58-3.42l6.45-6.45Z"/></svg>
